src/assets/icons/CreatePlus.svg

<svg width="16" height="16" viewBox="0 0 16 16" fill="none" xmlns="http://www.w3.org/2000/svg">
<path d="M4.875 8C4.875 8.34519 5.15481 8.625 5.5 8.625H7.375V10.5C7.375 10.8452 7.65481 11.125 8 11.125C8.34519 11.125 8.625 10.8452 8.625 10.5V8.625H10.5C10.8452 8.625 11.125 8.34519 11.125 8C11.125 7.65481 10.8452 7.375 10.5 7.375H8.625V5.5C8.625 5.15481 8.34519 4.875 8 4.875C7.65481 4.875 7.375 5.15481 7.375 5.5V7.375H5.5C5.15481 7.375 4.875 7.65481 4.875 8Z" fill="#0061DF"/>
<path d="M5.01269 1.93126L5.8211 1.59638C6.13997 1.46426 6.29144 1.09866 6.15932 0.779756C6.02719 0.46085 5.66163 0.309319 5.34269 0.441538L4.53429 0.776413C4.21541 0.908538 4.06394 1.27413 4.19607 1.59304C4.32776 1.91088 4.69276 2.06369 5.01269 1.93126Z" fill="#0061DF"/>
<path d="M8 0C7.65481 0 7.375 0.279813 7.375 0.625C7.375 0.970187 7.65481 1.25 8 1.25C11.7306 1.25 14.75 4.269 14.75 8C14.75 11.7306 11.731 14.75 8 14.75C4.26944 14.75 1.25 11.731 1.25 8C1.25 7.65481 0.970187 7.375 0.625 7.375C0.279813 7.375 0 7.65481 0 8C0 12.4213 3.57803 16 8 16C12.4213 16 16 12.422 16 8C16 3.57866 12.422 0 8 0Z" fill="#0061DF"/>
<path d="M2.91768 3.53639L3.5364 2.91767C3.7805 2.67358 3.7805 2.27783 3.5364 2.03377C3.29231 1.7897 2.89656 1.78967 2.6525 2.03377L2.03378 2.65248C1.78968 2.89658 1.78968 3.29233 2.03378 3.53639C2.27781 3.78042 2.67359 3.78048 2.91768 3.53639Z" fill="#0061DF"/>
<path d="M0.77977 6.15935C1.09936 6.29172 1.46458 6.13929 1.5964 5.82113L1.93127 5.01269C2.0634 4.69378 1.91193 4.32819 1.59305 4.19606C1.27408 4.06397 0.908551 4.21541 0.776426 4.53428L0.441551 5.34269C0.309426 5.66163 0.460895 6.02722 0.77977 6.15935Z" fill="#0061DF"/>
</svg>

<svg xmlns="http://www.w3.org/2000/svg" width="16" height="16" fill="none"><path fill="#0061DF" d="M4.875 8c0 .345.28.625.625.625h1.875V10.5a.625.625 0 1 0 1.25 0V8.625H10.5a.625.625 0 1 0 0-1.25H8.625V5.5a.625.625 0 1 0-1.25 0v1.875H5.5A.625.625 0 0 0 4.875 8ZM5.013 1.931l.808-.335A.625.625 0 0 0 5.343.442l-.809.334a.625.625 0 0 0 .479 1.155Z"/><path fill="#0061DF" d="M8 0a.625.625 0 1 0 0 1.25c3.73 0 6.75 3.019 6.75 6.75 0 3.73-3.019 6.75-6.75 6.75A6.746 6.746 0 0 1 1.25 8 .625.625 0 1 0 0 8c0 4.421 3.578 8 8 8 4.421 0 8-3.578 8-8 0-4.421-3.578-8-8-8ZM2.918 3.536l.618-.618a.625.625 0 1 0-.884-.884l-.618.618a.625.625 0 1 0 .884.884ZM.78 6.16c.32.132.685-.02.816-.339l.335-.808a.625.625 0 0 0-1.155-.479l-.334.809a.625.625 0 0 0 .338.816Z"/></svg>
